X:357
T:no name
R:reel
Z:id:hn-reel-357
M:C|
K:G
ge|dBBA GD~D2|GB~B2 dBGB|~A3B AGED|EGAB cABc|
dBBA GD~D2|GB~B2 dBGB|ABBA B2ge|dBAF G2:|
|:ga|bg~g2 bgdg|af~f2 afdf|bg~g2 aged|eaag afga|
bg~g2 agef|g2ge dBGA|~B3A B2ge|dBAF G2:|
